X: 18022
T: Hula Hoop
R: reel
M: 4/4
K: Dmajor
F~A3 ~A3B|dBAF EDBD|AAFA fgfd|edBA BedA|
F~A3 ~A3B|dz AF EDBD|AAFA fgfd|e~B3 ~B3A||
F~A3 ~A3B|dz AF EDBD|AAFA fgfd|edBA BedA|
F~A3 AFAB|dz AF EDBD|AAFA fgfd|edBA Bcdz||
f~B3 FBdf|eAcA .c/.c/d ez|f~B3 FBdB|.c/.c/e ae fece|
fz ~B2 FBdf|eAcA .c/.c/d ez|.fd.ec .dB.cA|.F~B3 {c}Bcde||
eJf{e}fz ~B3d|e~A3 ~A3z|f~B3 fecB|A~E3 ~A2ce|
f~B3 FBdf|eAcA .c/.c/d ez|(fd e/d/c) (dBcA)|(E/F/G/A/) dc BA (G/F/E)||

